(.../Documents/pcbgcode/pcb-gcode.ulp)
(Copyright 2005 - 2012 by John Johnson)
(See readme.txt for licensing terms.)
(This file generated from the board:)
(.../OldLinefollowerRecreate/OldLineFollowerRecreate.brd)
(Current profile is .../pcbgcode/profiles/generic.pp  )
(This file generated 8/28/2016 2:40 PM)
(Settings from pcb-machine.h)
(spindle on time = 3.0000)
(  Tool Size)
(0.0080 )
(spindle speed = 30000.0000)
(tool change at 0.0000 0.0000 1.0000 )
(feed rate xy = F1.00  )
(feed rate z  = F10.00 )
(Z Axis Settings)
(  High     Up        Down     Drill)
(0.5000 	0.0500 	-0.0070 	-0.0670 )
(Settings from pcb-defaults.h)
(isolate min = 0.0010)
(isolate max = 0.0200)
(isolate step = 0.0050)
(Generated top outlines, top drill, bottom outlines, bottom drill, )
(Unit of measure: inch)
(Inch Mode)
G20
(Absolute Coordinates)
G90
S30000
G00 Z0.5000 
G00 X0.0000 Y0.0000 
M03
G04 P3.000000
G00 Z0.0500 
G00 X-0.0680 Y0.0726 
G01 Z-0.0070 F10.00 
G01 X-0.0726 Y0.0680 F1.00  
G01 X-0.0780 Y0.0641 
G01 X-0.0839 Y0.0611 
G01 X-0.0902 Y0.0590 
G01 X-0.0967 Y0.0580 
G01 X-0.1033 Y0.0580 
G01 X-0.1098 Y0.0590 
G01 X-0.1161 Y0.0611 
G01 X-0.1220 Y0.0641 
G01 X-0.1274 Y0.0680 
G01 X-0.1320 Y0.0726 
G01 X-0.1359 Y0.0780 
G01 X-0.1389 Y0.0839 
G01 X-0.1410 Y0.0902 
G01 X-0.1420 Y0.0967 
G01 X-0.1420 Y0.1033 
G01 X-0.1410 Y0.1098 
G01 X-0.1389 Y0.1161 
G01 X-0.1359 Y0.1220 
G01 X-0.1320 Y0.1274 
G01 X-0.1274 Y0.1320 
G01 X-0.1220 Y0.1359 
G01 X-0.1161 Y0.1389 
G01 X-0.1098 Y0.1410 
G01 X-0.1033 Y0.1420 
G01 X-0.0967 Y0.1420 
G01 X-0.0902 Y0.1410 
G01 X-0.0839 Y0.1389 
G01 X-0.0780 Y0.1359 
G01 X-0.0726 Y0.1320 
G01 X-0.0680 Y0.1274 
G01 X-0.0641 Y0.1220 
G01 X-0.0611 Y0.1161 
G01 X-0.0590 Y0.1098 
G01 X-0.0580 Y0.1033 
G01 X-0.0580 Y0.0967 
G01 X-0.0590 Y0.0902 
G01 X-0.0611 Y0.0839 
G01 X-0.0641 Y0.0780 
G01 X-0.0680 Y0.0726 
G00 Z0.0500 
G00 X-0.0680 Y0.1726 
G01 Z-0.0070 F10.00 
G01 X-0.0726 Y0.1680 F1.00  
G01 X-0.0780 Y0.1641 
G01 X-0.0839 Y0.1611 
G01 X-0.0902 Y0.1590 
G01 X-0.0967 Y0.1580 
G01 X-0.1033 Y0.1580 
G01 X-0.1098 Y0.1590 
G01 X-0.1161 Y0.1611 
G01 X-0.1220 Y0.1641 
G01 X-0.1274 Y0.1680 
G01 X-0.1320 Y0.1726 
G01 X-0.1359 Y0.1780 
G01 X-0.1389 Y0.1839 
G01 X-0.1410 Y0.1902 
G01 X-0.1420 Y0.1967 
G01 X-0.1420 Y0.2033 
G01 X-0.1410 Y0.2098 
G01 X-0.1389 Y0.2161 
G01 X-0.1359 Y0.2220 
G01 X-0.1320 Y0.2274 
G01 X-0.1274 Y0.2320 
G01 X-0.1220 Y0.2359 
G01 X-0.1161 Y0.2389 
G01 X-0.1098 Y0.2410 
G01 X-0.1033 Y0.2420 
G01 X-0.0967 Y0.2420 
G01 X-0.0902 Y0.2410 
G01 X-0.0839 Y0.2389 
G01 X-0.0780 Y0.2359 
G01 X-0.0726 Y0.2320 
G01 X-0.0680 Y0.2274 
G01 X-0.0641 Y0.2220 
G01 X-0.0611 Y0.2161 
G01 X-0.0590 Y0.2098 
G01 X-0.0580 Y0.2033 
G01 X-0.0580 Y0.1967 
G01 X-0.0590 Y0.1902 
G01 X-0.0611 Y0.1839 
G01 X-0.0641 Y0.1780 
G01 X-0.0680 Y0.1726 
G00 Z0.0500 
G00 X-0.0680 Y0.2726 
G01 Z-0.0070 F10.00 
G01 X-0.0726 Y0.2680 F1.00  
G01 X-0.0780 Y0.2641 
G01 X-0.0839 Y0.2611 
G01 X-0.0902 Y0.2590 
G01 X-0.0967 Y0.2580 
G01 X-0.1033 Y0.2580 
G01 X-0.1098 Y0.2590 
G01 X-0.1161 Y0.2611 
G01 X-0.1220 Y0.2641 
G01 X-0.1274 Y0.2680 
G01 X-0.1320 Y0.2726 
G01 X-0.1359 Y0.2780 
G01 X-0.1389 Y0.2839 
G01 X-0.1410 Y0.2902 
G01 X-0.1420 Y0.2967 
G01 X-0.1420 Y0.3033 
G01 X-0.1410 Y0.3098 
G01 X-0.1389 Y0.3161 
G01 X-0.1359 Y0.3220 
G01 X-0.1320 Y0.3274 
G01 X-0.1274 Y0.3320 
G01 X-0.1220 Y0.3359 
G01 X-0.1161 Y0.3389 
G01 X-0.1098 Y0.3410 
G01 X-0.1033 Y0.3420 
G01 X-0.0967 Y0.3420 
G01 X-0.0902 Y0.3410 
G01 X-0.0839 Y0.3389 
G01 X-0.0780 Y0.3359 
G01 X-0.0726 Y0.3320 
G01 X-0.0680 Y0.3274 
G01 X-0.0641 Y0.3220 
G01 X-0.0611 Y0.3161 
G01 X-0.0590 Y0.3098 
G01 X-0.0580 Y0.3033 
G01 X-0.0580 Y0.2967 
G01 X-0.0590 Y0.2902 
G01 X-0.0611 Y0.2839 
G01 X-0.0641 Y0.2780 
G01 X-0.0680 Y0.2726 
G00 Z0.0500 
G00 X-0.0680 Y0.3726 
G01 Z-0.0070 F10.00 
G01 X-0.0726 Y0.3680 F1.00  
G01 X-0.0780 Y0.3641 
G01 X-0.0839 Y0.3611 
G01 X-0.0902 Y0.3590 
G01 X-0.0967 Y0.3580 
G01 X-0.1033 Y0.3580 
G01 X-0.1098 Y0.3590 
G01 X-0.1161 Y0.3611 
G01 X-0.1220 Y0.3641 
G01 X-0.1274 Y0.3680 
G01 X-0.1320 Y0.3726 
G01 X-0.1359 Y0.3780 
G01 X-0.1389 Y0.3839 
G01 X-0.1410 Y0.3902 
G01 X-0.1420 Y0.3967 
G01 X-0.1420 Y0.4033 
G01 X-0.1410 Y0.4098 
G01 X-0.1389 Y0.4161 
G01 X-0.1359 Y0.4220 
G01 X-0.1320 Y0.4274 
G01 X-0.1274 Y0.4320 
G01 X-0.1220 Y0.4359 
G01 X-0.1161 Y0.4389 
G01 X-0.1098 Y0.4410 
G01 X-0.1033 Y0.4420 
G01 X-0.0967 Y0.4420 
G01 X-0.0902 Y0.4410 
G01 X-0.0839 Y0.4389 
G01 X-0.0780 Y0.4359 
G01 X-0.0726 Y0.4320 
G01 X-0.0680 Y0.4274 
G01 X-0.0641 Y0.4220 
G01 X-0.0611 Y0.4161 
G01 X-0.0590 Y0.4098 
G01 X-0.0580 Y0.4033 
G01 X-0.0580 Y0.3967 
G01 X-0.0590 Y0.3902 
G01 X-0.0611 Y0.3839 
G01 X-0.0641 Y0.3780 
G01 X-0.0680 Y0.3726 
G00 Z0.0500 
G00 X-0.0680 Y0.4726 
G01 Z-0.0070 F10.00 
G01 X-0.0726 Y0.4680 F1.00  
G01 X-0.0780 Y0.4641 
G01 X-0.0839 Y0.4611 
G01 X-0.0902 Y0.4590 
G01 X-0.0967 Y0.4580 
G01 X-0.1033 Y0.4580 
G01 X-0.1098 Y0.4590 
G01 X-0.1161 Y0.4611 
G01 X-0.1172 Y0.4616 
G01 X-0.2380 Y0.3408 
G01 X-0.2408 Y0.3380 
G01 X-0.2442 Y0.3360 
G01 X-0.2480 Y0.3350 
G01 X-0.2938 Y0.3350 
G01 X-0.5190 Y0.1098 
G01 X-0.5190 Y0.0872 
G01 X-0.5372 Y0.0690 
G01 X-0.5628 Y0.0690 
G01 X-0.5810 Y0.0872 
G01 X-0.5810 Y0.1128 
G01 X-0.5628 Y0.1310 
G01 X-0.5402 Y0.1310 
G01 X-0.3092 Y0.3620 
G01 X-0.3058 Y0.3640 
G01 X-0.3020 Y0.3650 
G01 X-0.2562 Y0.3650 
G01 X-0.1384 Y0.4828 
G01 X-0.1389 Y0.4839 
G01 X-0.1410 Y0.4902 
G01 X-0.1420 Y0.4967 
G01 X-0.1420 Y0.5033 
G01 X-0.1410 Y0.5098 
G01 X-0.1389 Y0.5161 
G01 X-0.1359 Y0.5220 
G01 X-0.1320 Y0.5274 
G01 X-0.1274 Y0.5320 
G01 X-0.1220 Y0.5359 
G01 X-0.1161 Y0.5389 
G01 X-0.1098 Y0.5410 
G01 X-0.1033 Y0.5420 
G01 X-0.0967 Y0.5420 
G01 X-0.0902 Y0.5410 
G01 X-0.0839 Y0.5389 
G01 X-0.0780 Y0.5359 
G01 X-0.0726 Y0.5320 
G01 X-0.0680 Y0.5274 
G01 X-0.0641 Y0.5220 
G01 X-0.0611 Y0.5161 
G01 X-0.0590 Y0.5098 
G01 X-0.0580 Y0.5033 
G01 X-0.0580 Y0.4967 
G01 X-0.0590 Y0.4902 
G01 X-0.0611 Y0.4839 
G01 X-0.0641 Y0.4780 
G01 X-0.0680 Y0.4726 
G00 Z0.0500 
G00 X-0.0680 Y0.5726 
G01 Z-0.0070 F10.00 
G01 X-0.0726 Y0.5680 F1.00  
G01 X-0.0780 Y0.5641 
G01 X-0.0839 Y0.5611 
G01 X-0.0902 Y0.5590 
G01 X-0.0967 Y0.5580 
G01 X-0.1033 Y0.5580 
G01 X-0.1098 Y0.5590 
G01 X-0.1161 Y0.5611 
G01 X-0.1172 Y0.5616 
G01 X-0.4880 Y0.1908 
G01 X-0.4908 Y0.1880 
G01 X-0.4942 Y0.1860 
G01 X-0.4980 Y0.1850 
G01 X-0.5212 Y0.1850 
G01 X-0.5372 Y0.1690 
G01 X-0.5628 Y0.1690 
G01 X-0.5788 Y0.1850 
G01 X-0.9270 Y0.1850 
G01 X-0.9308 Y0.1860 
G01 X-0.9342 Y0.1880 
G01 X-0.9370 Y0.1908 
G01 X-0.9390 Y0.1942 
G01 X-0.9400 Y0.1980 
G01 X-0.9400 Y0.5770 
G01 X-0.9390 Y0.5808 
G01 X-0.9370 Y0.5842 
G01 X-0.9342 Y0.5870 
G01 X-0.9092 Y0.6120 
G01 X-0.9058 Y0.6140 
G01 X-0.9020 Y0.6150 
G01 X-0.8150 Y0.6150 
G01 X-0.8150 Y0.8730 
G01 X-0.8196 Y0.8761 
G01 X-0.8239 Y0.8804 
G01 X-0.8272 Y0.8854 
G01 X-0.8296 Y0.8910 
G01 X-0.8307 Y0.8970 
G01 X-0.8307 Y0.9030 
G01 X-0.8296 Y0.9090 
G01 X-0.8272 Y0.9146 
G01 X-0.8239 Y0.9196 
G01 X-0.8196 Y0.9239 
G01 X-0.8146 Y0.9272 
G01 X-0.8090 Y0.9296 
G01 X-0.8030 Y0.9307 
G01 X-0.7970 Y0.9307 
G01 X-0.7910 Y0.9296 
G01 X-0.7854 Y0.9272 
G01 X-0.7804 Y0.9239 
G01 X-0.7761 Y0.9196 
G01 X-0.7728 Y0.9146 
G01 X-0.7704 Y0.9090 
G01 X-0.7693 Y0.9030 
G01 X-0.7693 Y0.8970 
G01 X-0.7704 Y0.8910 
G01 X-0.7728 Y0.8854 
G01 X-0.7761 Y0.8804 
G01 X-0.7804 Y0.8761 
G01 X-0.7850 Y0.8730 
G01 X-0.7850 Y0.5980 
G01 X-0.7860 Y0.5942 
G01 X-0.7880 Y0.5908 
G01 X-0.7908 Y0.5880 
G01 X-0.7942 Y0.5860 
G01 X-0.7980 Y0.5850 
G01 X-0.8938 Y0.5850 
G01 X-0.9100 Y0.5688 
G01 X-0.9100 Y0.2150 
G01 X-0.5788 Y0.2150 
G01 X-0.5628 Y0.2310 
G01 X-0.5372 Y0.2310 
G01 X-0.5212 Y0.2150 
G01 X-0.5062 Y0.2150 
G01 X-0.1384 Y0.5828 
G01 X-0.1389 Y0.5839 
G01 X-0.1410 Y0.5902 
G01 X-0.1420 Y0.5967 
G01 X-0.1420 Y0.6033 
G01 X-0.1410 Y0.6098 
G01 X-0.1389 Y0.6161 
G01 X-0.1359 Y0.6220 
G01 X-0.1320 Y0.6274 
G01 X-0.1274 Y0.6320 
G01 X-0.1220 Y0.6359 
G01 X-0.1161 Y0.6389 
G01 X-0.1098 Y0.6410 
G01 X-0.1033 Y0.6420 
G01 X-0.0967 Y0.6420 
G01 X-0.0902 Y0.6410 
G01 X-0.0839 Y0.6389 
G01 X-0.0780 Y0.6359 
G01 X-0.0726 Y0.6320 
G01 X-0.0680 Y0.6274 
G01 X-0.0641 Y0.6220 
G01 X-0.0611 Y0.6161 
G01 X-0.0590 Y0.6098 
G01 X-0.0580 Y0.6033 
G01 X-0.0580 Y0.5967 
G01 X-0.0590 Y0.5902 
G01 X-0.0611 Y0.5839 
G01 X-0.0641 Y0.5780 
G01 X-0.0680 Y0.5726 
G00 Z0.0500 
G00 X-0.0680 Y0.6726 
G01 Z-0.0070 F10.00 
G01 X-0.0726 Y0.6680 F1.00  
G01 X-0.0780 Y0.6641 
G01 X-0.0839 Y0.6611 
G01 X-0.0902 Y0.6590 
G01 X-0.0967 Y0.6580 
G01 X-0.1033 Y0.6580 
G01 X-0.1098 Y0.6590 
G01 X-0.1161 Y0.6611 
G01 X-0.1172 Y0.6616 
G01 X-0.2408 Y0.5380 
G01 X-0.2442 Y0.5360 
G01 X-0.2480 Y0.5350 
G01 X-0.7967 Y0.5350 
G01 X-0.7999 Y0.5302 
G01 X-0.8042 Y0.5259 
G01 X-0.8093 Y0.5225 
G01 X-0.8150 Y0.5202 
G01 X-0.8209 Y0.5190 
G01 X-0.8791 Y0.5190 
G01 X-0.8850 Y0.5202 
G01 X-0.8907 Y0.5225 
G01 X-0.8958 Y0.5259 
G01 X-0.9001 Y0.5302 
G01 X-0.9035 Y0.5353 
G01 X-0.9058 Y0.5410 
G01 X-0.9070 Y0.5469 
G01 X-0.9070 Y0.5531 
G01 X-0.9058 Y0.5590 
G01 X-0.9035 Y0.5647 
G01 X-0.9001 Y0.5698 
G01 X-0.8958 Y0.5741 
G01 X-0.8907 Y0.5775 
G01 X-0.8850 Y0.5798 
G01 X-0.8791 Y0.5810 
G01 X-0.8209 Y0.5810 
G01 X-0.8150 Y0.5798 
G01 X-0.8093 Y0.5775 
G01 X-0.8042 Y0.5741 
G01 X-0.7999 Y0.5698 
G01 X-0.7967 Y0.5650 
G01 X-0.2562 Y0.5650 
G01 X-0.1384 Y0.6828 
G01 X-0.1389 Y0.6839 
G01 X-0.1410 Y0.6902 
G01 X-0.1420 Y0.6967 
G01 X-0.1420 Y0.7033 
G01 X-0.1410 Y0.7098 
G01 X-0.1389 Y0.7161 
G01 X-0.1359 Y0.7220 
G01 X-0.1320 Y0.7274 
G01 X-0.1274 Y0.7320 
G01 X-0.1220 Y0.7359 
G01 X-0.1161 Y0.7389 
G01 X-0.1098 Y0.7410 
G01 X-0.1033 Y0.7420 
G01 X-0.0967 Y0.7420 
G01 X-0.0902 Y0.7410 
G01 X-0.0839 Y0.7389 
G01 X-0.0780 Y0.7359 
G01 X-0.0726 Y0.7320 
G01 X-0.0680 Y0.7274 
G01 X-0.0641 Y0.7220 
G01 X-0.0611 Y0.7161 
G01 X-0.0590 Y0.7098 
G01 X-0.0580 Y0.7033 
G01 X-0.0580 Y0.6967 
G01 X-0.0590 Y0.6902 
G01 X-0.0611 Y0.6839 
G01 X-0.0641 Y0.6780 
G01 X-0.0680 Y0.6726 
G00 Z0.0500 
G00 X-0.0680 Y0.7726 
G01 Z-0.0070 F10.00 
G01 X-0.0726 Y0.7680 F1.00  
G01 X-0.0780 Y0.7641 
G01 X-0.0839 Y0.7611 
G01 X-0.0902 Y0.7590 
G01 X-0.0967 Y0.7580 
G01 X-0.1033 Y0.7580 
G01 X-0.1098 Y0.7590 
G01 X-0.1161 Y0.7611 
G01 X-0.1220 Y0.7641 
G01 X-0.1274 Y0.7680 
G01 X-0.1320 Y0.7726 
G01 X-0.1359 Y0.7780 
G01 X-0.1389 Y0.7839 
G01 X-0.1393 Y0.7850 
G01 X-0.4850 Y0.7850 
G01 X-0.4850 Y0.7150 
G01 X-0.4365 Y0.7150 
G01 X-0.4365 Y0.7151 
G01 X-0.4151 Y0.7365 
G01 X-0.3849 Y0.7365 
G01 X-0.3635 Y0.7151 
G01 X-0.3635 Y0.6849 
G01 X-0.3849 Y0.6635 
G01 X-0.4151 Y0.6635 
G01 X-0.4365 Y0.6849 
G01 X-0.4365 Y0.6850 
G01 X-0.5135 Y0.6850 
G01 X-0.5135 Y0.6849 
G01 X-0.5349 Y0.6635 
G01 X-0.5651 Y0.6635 
G01 X-0.5865 Y0.6849 
G01 X-0.5865 Y0.7151 
G01 X-0.5651 Y0.7365 
G01 X-0.5349 Y0.7365 
G01 X-0.5150 Y0.7166 
G01 X-0.5150 Y0.8383 
G01 X-0.5166 Y0.8390 
G01 X-0.5223 Y0.8428 
G01 X-0.5272 Y0.8477 
G01 X-0.5310 Y0.8534 
G01 X-0.5337 Y0.8598 
G01 X-0.5350 Y0.8666 
G01 X-0.5350 Y0.9334 
G01 X-0.5337 Y0.9402 
G01 X-0.5310 Y0.9466 
G01 X-0.5272 Y0.9523 
G01 X-0.5223 Y0.9572 
G01 X-0.5166 Y0.9610 
G01 X-0.5102 Y0.9637 
G01 X-0.5034 Y0.9650 
G01 X-0.4966 Y0.9650 
G01 X-0.4898 Y0.9637 
G01 X-0.4834 Y0.9610 
G01 X-0.4777 Y0.9572 
G01 X-0.4728 Y0.9523 
G01 X-0.4690 Y0.9466 
G01 X-0.4663 Y0.9402 
G01 X-0.4650 Y0.9334 
G01 X-0.4650 Y0.8666 
G01 X-0.4663 Y0.8598 
G01 X-0.4690 Y0.8534 
G01 X-0.4728 Y0.8477 
G01 X-0.4777 Y0.8428 
G01 X-0.4834 Y0.8390 
G01 X-0.4850 Y0.8383 
G01 X-0.4850 Y0.8150 
G01 X-0.1393 Y0.8150 
G01 X-0.1389 Y0.8161 
G01 X-0.1359 Y0.8220 
G01 X-0.1320 Y0.8274 
G01 X-0.1274 Y0.8320 
G01 X-0.1220 Y0.8359 
G01 X-0.1161 Y0.8389 
G01 X-0.1098 Y0.8410 
G01 X-0.1033 Y0.8420 
G01 X-0.0967 Y0.8420 
G01 X-0.0902 Y0.8410 
G01 X-0.0839 Y0.8389 
G01 X-0.0780 Y0.8359 
G01 X-0.0726 Y0.8320 
G01 X-0.0680 Y0.8274 
G01 X-0.0641 Y0.8220 
G01 X-0.0611 Y0.8161 
G01 X-0.0590 Y0.8098 
G01 X-0.0580 Y0.8033 
G01 X-0.0580 Y0.7967 
G01 X-0.0590 Y0.7902 
G01 X-0.0611 Y0.7839 
G01 X-0.0641 Y0.7780 
G01 X-0.0680 Y0.7726 
G00 Z0.0500 
G00 X-0.0680 Y0.8726 
G01 Z-0.0070 F10.00 
G01 X-0.0726 Y0.8680 F1.00  
G01 X-0.0780 Y0.8641 
G01 X-0.0839 Y0.8611 
G01 X-0.0902 Y0.8590 
G01 X-0.0967 Y0.8580 
G01 X-0.1033 Y0.8580 
G01 X-0.1098 Y0.8590 
G01 X-0.1161 Y0.8611 
G01 X-0.1220 Y0.8641 
G01 X-0.1274 Y0.8680 
G01 X-0.1320 Y0.8726 
G01 X-0.1359 Y0.8780 
G01 X-0.1389 Y0.8839 
G01 X-0.1410 Y0.8902 
G01 X-0.1420 Y0.8967 
G01 X-0.1420 Y0.9033 
G01 X-0.1410 Y0.9098 
G01 X-0.1389 Y0.9161 
G01 X-0.1359 Y0.9220 
G01 X-0.1320 Y0.9274 
G01 X-0.1274 Y0.9320 
G01 X-0.1220 Y0.9359 
G01 X-0.1161 Y0.9389 
G01 X-0.1098 Y0.9410 
G01 X-0.1033 Y0.9420 
G01 X-0.0967 Y0.9420 
G01 X-0.0902 Y0.9410 
G01 X-0.0839 Y0.9389 
G01 X-0.0780 Y0.9359 
G01 X-0.0726 Y0.9320 
G01 X-0.0680 Y0.9274 
G01 X-0.0641 Y0.9220 
G01 X-0.0611 Y0.9161 
G01 X-0.0590 Y0.9098 
G01 X-0.0580 Y0.9033 
G01 X-0.0580 Y0.8967 
G01 X-0.0590 Y0.8902 
G01 X-0.0611 Y0.8839 
G01 X-0.0641 Y0.8780 
G01 X-0.0680 Y0.8726 
G00 Z0.0500 
G00 X-0.3650 Y0.8666 
G01 Z-0.0070 F10.00 
G01 X-0.3663 Y0.8598 F1.00  
G01 X-0.3690 Y0.8534 
G01 X-0.3728 Y0.8477 
G01 X-0.3777 Y0.8428 
G01 X-0.3834 Y0.8390 
G01 X-0.3898 Y0.8363 
G01 X-0.3966 Y0.8350 
G01 X-0.4034 Y0.8350 
G01 X-0.4102 Y0.8363 
G01 X-0.4166 Y0.8390 
G01 X-0.4223 Y0.8428 
G01 X-0.4272 Y0.8477 
G01 X-0.4310 Y0.8534 
G01 X-0.4337 Y0.8598 
G01 X-0.4350 Y0.8666 
G01 X-0.4350 Y0.9334 
G01 X-0.4337 Y0.9402 
G01 X-0.4310 Y0.9466 
G01 X-0.4272 Y0.9523 
G01 X-0.4223 Y0.9572 
G01 X-0.4166 Y0.9610 
G01 X-0.4102 Y0.9637 
G01 X-0.4034 Y0.9650 
G01 X-0.3966 Y0.9650 
G01 X-0.3898 Y0.9637 
G01 X-0.3834 Y0.9610 
G01 X-0.3777 Y0.9572 
G01 X-0.3728 Y0.9523 
G01 X-0.3690 Y0.9466 
G01 X-0.3663 Y0.9402 
G01 X-0.3650 Y0.9334 
G01 X-0.3650 Y0.8666 
G00 Z0.0500 
G00 X-0.3365 Y0.7151 
G01 Z-0.0070 F10.00 
G01 X-0.3151 Y0.7365 F1.00  
G01 X-0.2849 Y0.7365 
G01 X-0.2635 Y0.7151 
G01 X-0.2635 Y0.6849 
G01 X-0.2849 Y0.6635 
G01 X-0.3151 Y0.6635 
G01 X-0.3365 Y0.6849 
G01 X-0.3365 Y0.7151 
G00 Z0.0500 
G00 X-0.6135 Y0.7151 
G01 Z-0.0070 F10.00 
G01 X-0.6135 Y0.6849 F1.00  
G01 X-0.6349 Y0.6635 
G01 X-0.6651 Y0.6635 
G01 X-0.6865 Y0.6849 
G01 X-0.6865 Y0.7151 
G01 X-0.6651 Y0.7365 
G01 X-0.6349 Y0.7365 
G01 X-0.6135 Y0.7151 
G00 Z0.0500 
G00 X-0.6102 Y0.8363 
G01 Z-0.0070 F10.00 
G01 X-0.6166 Y0.8390 F1.00  
G01 X-0.6223 Y0.8428 
G01 X-0.6272 Y0.8477 
G01 X-0.6310 Y0.8534 
G01 X-0.6337 Y0.8598 
G01 X-0.6350 Y0.8666 
G01 X-0.6350 Y0.9334 
G01 X-0.6337 Y0.9402 
G01 X-0.6310 Y0.9466 
G01 X-0.6272 Y0.9523 
G01 X-0.6223 Y0.9572 
G01 X-0.6166 Y0.9610 
G01 X-0.6102 Y0.9637 
G01 X-0.6034 Y0.9650 
G01 X-0.5966 Y0.9650 
G01 X-0.5898 Y0.9637 
G01 X-0.5834 Y0.9610 
G01 X-0.5777 Y0.9572 
G01 X-0.5728 Y0.9523 
G01 X-0.5690 Y0.9466 
G01 X-0.5663 Y0.9402 
G01 X-0.5650 Y0.9334 
G01 X-0.5650 Y0.8666 
G01 X-0.5663 Y0.8598 
G01 X-0.5690 Y0.8534 
G01 X-0.5728 Y0.8477 
G01 X-0.5777 Y0.8428 
G01 X-0.5834 Y0.8390 
G01 X-0.5898 Y0.8363 
G01 X-0.5966 Y0.8350 
G01 X-0.6034 Y0.8350 
G01 X-0.6102 Y0.8363 
G00 Z0.0500 
G00 X-0.8761 Y0.8804 
G01 Z-0.0070 F10.00 
G01 X-0.8804 Y0.8761 F1.00  
G01 X-0.8854 Y0.8728 
G01 X-0.8910 Y0.8704 
G01 X-0.8970 Y0.8693 
G01 X-0.9030 Y0.8693 
G01 X-0.9090 Y0.8704 
G01 X-0.9146 Y0.8728 
G01 X-0.9196 Y0.8761 
G01 X-0.9239 Y0.8804 
G01 X-0.9272 Y0.8854 
G01 X-0.9296 Y0.8910 
G01 X-0.9307 Y0.8970 
G01 X-0.9307 Y0.9030 
G01 X-0.9296 Y0.9090 
G01 X-0.9272 Y0.9146 
G01 X-0.9239 Y0.9196 
G01 X-0.9196 Y0.9239 
G01 X-0.9146 Y0.9272 
G01 X-0.9090 Y0.9296 
G01 X-0.9030 Y0.9307 
G01 X-0.8970 Y0.9307 
G01 X-0.8910 Y0.9296 
G01 X-0.8854 Y0.9272 
G01 X-0.8804 Y0.9239 
G01 X-0.8761 Y0.9196 
G01 X-0.8728 Y0.9146 
G01 X-0.8704 Y0.9090 
G01 X-0.8693 Y0.9030 
G01 X-0.8693 Y0.8970 
G01 X-0.8704 Y0.8910 
G01 X-0.8728 Y0.8854 
G01 X-0.8761 Y0.8804 
G00 Z0.0500 
G00 X-0.8791 Y0.4810 
G01 Z-0.0070 F10.00 
G01 X-0.8209 Y0.4810 F1.00  
G01 X-0.8150 Y0.4798 
G01 X-0.8093 Y0.4775 
G01 X-0.8042 Y0.4741 
G01 X-0.7999 Y0.4698 
G01 X-0.7967 Y0.4650 
G01 X-0.6980 Y0.4650 
G01 X-0.6942 Y0.4640 
G01 X-0.6908 Y0.4620 
G01 X-0.6880 Y0.4592 
G01 X-0.5598 Y0.3310 
G01 X-0.5372 Y0.3310 
G01 X-0.5190 Y0.3128 
G01 X-0.5190 Y0.2872 
G01 X-0.5372 Y0.2690 
G01 X-0.5628 Y0.2690 
G01 X-0.5810 Y0.2872 
G01 X-0.5810 Y0.3098 
G01 X-0.7062 Y0.4350 
G01 X-0.7967 Y0.4350 
G01 X-0.7999 Y0.4302 
G01 X-0.8042 Y0.4259 
G01 X-0.8093 Y0.4225 
G01 X-0.8150 Y0.4202 
G01 X-0.8209 Y0.4190 
G01 X-0.8791 Y0.4190 
G01 X-0.8850 Y0.4202 
G01 X-0.8907 Y0.4225 
G01 X-0.8958 Y0.4259 
G01 X-0.9001 Y0.4302 
G01 X-0.9035 Y0.4353 
G01 X-0.9058 Y0.4410 
G01 X-0.9070 Y0.4469 
G01 X-0.9070 Y0.4531 
G01 X-0.9058 Y0.4590 
G01 X-0.9035 Y0.4647 
G01 X-0.9001 Y0.4698 
G01 X-0.8958 Y0.4741 
G01 X-0.8907 Y0.4775 
G01 X-0.8850 Y0.4798 
G01 X-0.8791 Y0.4810 
G00 Z0.0500 
G00 X-0.8804 Y0.1239 
G01 Z-0.0070 F10.00 
G01 X-0.8761 Y0.1196 F1.00  
G01 X-0.8728 Y0.1146 
G01 X-0.8704 Y0.1090 
G01 X-0.8693 Y0.1030 
G01 X-0.8693 Y0.0970 
G01 X-0.8704 Y0.0910 
G01 X-0.8728 Y0.0854 
G01 X-0.8761 Y0.0804 
G01 X-0.8804 Y0.0761 
G01 X-0.8854 Y0.0728 
G01 X-0.8910 Y0.0704 
G01 X-0.8970 Y0.0693 
G01 X-0.9030 Y0.0693 
G01 X-0.9090 Y0.0704 
G01 X-0.9146 Y0.0728 
G01 X-0.9196 Y0.0761 
G01 X-0.9239 Y0.0804 
G01 X-0.9272 Y0.0854 
G01 X-0.9296 Y0.0910 
G01 X-0.9307 Y0.0970 
G01 X-0.9307 Y0.1030 
G01 X-0.9296 Y0.1090 
G01 X-0.9272 Y0.1146 
G01 X-0.9239 Y0.1196 
G01 X-0.9196 Y0.1239 
G01 X-0.9146 Y0.1272 
G01 X-0.9090 Y0.1296 
G01 X-0.9030 Y0.1307 
G01 X-0.8970 Y0.1307 
G01 X-0.8910 Y0.1296 
G01 X-0.8854 Y0.1272 
G01 X-0.8804 Y0.1239 
G00 Z0.0500 
G00 X-0.8239 Y0.1196 
G01 Z-0.0070 F10.00 
G01 X-0.8196 Y0.1239 F1.00  
G01 X-0.8146 Y0.1272 
G01 X-0.8090 Y0.1296 
G01 X-0.8030 Y0.1307 
G01 X-0.7970 Y0.1307 
G01 X-0.7910 Y0.1296 
G01 X-0.7854 Y0.1272 
G01 X-0.7804 Y0.1239 
G01 X-0.7761 Y0.1196 
G01 X-0.7728 Y0.1146 
G01 X-0.7704 Y0.1090 
G01 X-0.7693 Y0.1030 
G01 X-0.7693 Y0.0970 
G01 X-0.7704 Y0.0910 
G01 X-0.7728 Y0.0854 
G01 X-0.7761 Y0.0804 
G01 X-0.7804 Y0.0761 
G01 X-0.7854 Y0.0728 
G01 X-0.7910 Y0.0704 
G01 X-0.7970 Y0.0693 
G01 X-0.8030 Y0.0693 
G01 X-0.8090 Y0.0704 
G01 X-0.8146 Y0.0728 
G01 X-0.8196 Y0.0761 
G01 X-0.8239 Y0.0804 
G01 X-0.8272 Y0.0854 
G01 X-0.8296 Y0.0910 
G01 X-0.8307 Y0.0970 
G01 X-0.8307 Y0.1030 
G01 X-0.8296 Y0.1090 
G01 X-0.8272 Y0.1146 
G01 X-0.8239 Y0.1196 
G00 Z0.0500 
G00 X-0.2810 Y0.1128 
G01 Z-0.0070 F10.00 
G01 X-0.2628 Y0.1310 F1.00  
G01 X-0.2372 Y0.1310 
G01 X-0.2190 Y0.1128 
G01 X-0.2190 Y0.0872 
G01 X-0.2372 Y0.0690 
G01 X-0.2628 Y0.0690 
G01 X-0.2810 Y0.0872 
G01 X-0.2810 Y0.1128 
G00 Z0.0500 
G00 X-0.2810 Y0.1872 
G01 Z-0.0070 F10.00 
G01 X-0.2810 Y0.2128 F1.00  
G01 X-0.2628 Y0.2310 
G01 X-0.2372 Y0.2310 
G01 X-0.2190 Y0.2128 
G01 X-0.2190 Y0.1872 
G01 X-0.2372 Y0.1690 
G01 X-0.2628 Y0.1690 
G01 X-0.2810 Y0.1872 
G00 Z0.0500 
G00 X-0.2810 Y0.2872 
G01 Z-0.0070 F10.00 
G01 X-0.2810 Y0.3128 F1.00  
G01 X-0.2628 Y0.3310 
G01 X-0.2372 Y0.3310 
G01 X-0.2190 Y0.3128 
G01 X-0.2190 Y0.2872 
G01 X-0.2372 Y0.2690 
G01 X-0.2628 Y0.2690 
G01 X-0.2810 Y0.2872 
G00 Z0.0500 
G00 Z0.050000
G00 X0.0500 Y1.0500 
G01 Z-0.0110 F0.50  
G01 Z0.050000
(R0.0500  P1.000000)
G00 X-1.0500 Y-0.0500 
G01 Z-0.067000
G01 Z0.050000
G00 X-0.6500 Y0.7000 
G01 Z-0.067000
G01 Z0.050000
G00 X-0.5500 Y0.7000 
G01 Z-0.067000
G01 Z0.050000
G00 X-0.3000 Y0.7000 
G01 Z-0.067000
G01 Z0.050000
G00 X-0.4000 Y0.7000 
G01 Z-0.067000
G01 Z0.050000
G00 X-0.8500 Y0.5500 
G01 Z-0.067000
G01 Z0.050000
G00 X-0.8500 Y0.4500 
G01 Z-0.067000
G01 Z0.050000
G00 X-0.4000 Y0.9000 
G01 Z-0.067000
G01 Z0.050000
G00 X-0.5000 Y0.9000 
G01 Z-0.067000
G01 Z0.050000
G00 X-0.6000 Y0.9000 
G01 Z-0.067000
G01 Z0.050000
G00 X-0.1000 Y0.1000 
G01 Z-0.067000
G01 Z0.050000
G00 X-0.1000 Y0.2000 
G01 Z-0.067000
G01 Z0.050000
G00 X-0.1000 Y0.3000 
G01 Z-0.067000
G01 Z0.050000
G00 X-0.1000 Y0.4000 
G01 Z-0.067000
G01 Z0.050000
G00 X-0.1000 Y0.5000 
G01 Z-0.067000
G01 Z0.050000
G00 X-0.1000 Y0.6000 
G01 Z-0.067000
G01 Z0.050000
G00 X-0.1000 Y0.7000 
G01 Z-0.067000
G01 Z0.050000
G00 X-0.1000 Y0.8000 
G01 Z-0.067000
G01 Z0.050000
G00 X-0.1000 Y0.9000 
G01 Z-0.067000
G01 Z0.050000
G00 X-0.9000 Y0.9000 
G01 Z-0.067000
G01 Z0.050000
G00 X-0.8000 Y0.9000 
G01 Z-0.067000
G01 Z0.050000
G00 X-0.9000 Y0.1000 
G01 Z-0.067000
G01 Z0.050000
G00 X-0.8000 Y0.1000 
G01 Z-0.067000
G01 Z0.050000
G00 X-0.2500 Y0.2000 
G01 Z-0.067000
G01 Z0.050000
G00 X-0.5500 Y0.2000 
G01 Z-0.067000
G01 Z0.050000
G00 X-0.2500 Y0.1000 
G01 Z-0.067000
G01 Z0.050000
G00 X-0.5500 Y0.1000 
G01 Z-0.067000
G01 Z0.050000
G00 X-0.2500 Y0.3000 
G01 Z-0.067000
G01 Z0.050000
G00 X-0.5500 Y0.3000 
G01 Z-0.067000
G01 Z0.050000
G00 Z0.5000 
M05
M02
