(.../Documents/pcbgcode/pcb-gcode.ulp)
(Copyright 2005 - 2012 by John Johnson)
(See readme.txt for licensing terms.)
(This file generated from the board:)
(.../OldLinefollowerRecreate/OldLineFollowerRecreate.brd)
(Current profile is .../pcbgcode/profiles/generic.pp  )
(This file generated 8/28/2016 2:40 PM)
(Settings from pcb-machine.h)
(spindle on time = 3.0000)
(spindle speed = 20000.0000)
(tool change at 0.0000 0.0000 1.0000 )
(feed rate xy = F0.00  )
(feed rate z  = F0.50  )
(Z Axis Settings)
(  High     Up        Down     Drill)
(0.5000 	0.0500 	-0.0070 	-0.0670 )
(Settings from pcb-defaults.h)
(isolate min = 0.0010)
(isolate max = 0.0200)
(isolate step = 0.0050)
(Generated top outlines, top drill, bottom outlines, bottom drill, )
(Unit of measure: inch)
( Tool|       Size       |  Min Sub |  Max Sub |   Count )
( T01  0.600mm 0.0236in 0.0000in 0.0000in )
( T02  0.800mm 0.0315in 0.0000in 0.0000in )
( T03  0.813mm 0.0320in 0.0000in 0.0000in )
( T04  1.016mm 0.0400in 0.0000in 0.0000in )
(Inch Mode)
G20
(Absolute Coordinates)
G90
S20000
G00 Z0.5000 
G00 X0.0000 Y0.0000 
M03
G04 P3.000000
M05
G00 Z1.0000 
M06 T01  ; 0.0236 
G01 Z0.0000 F0.50  
M06 
G00 Z0.0500 
M03
G04 P3.000000
G00 Z0.050000
G00 X-0.0500 Y1.0500 
G01 Z-0.0670 F0.50  
G01 Z0.050000
(R0.0500  P1.000000)
G00 X1.0500 Y-0.0500 
G01 Z-0.067000
G01 Z0.050000
M05
G00 Z1.0000 
G00 X0.0000 Y0.0000 
M06 T02  ; 0.0315 
G01 Z0.0000 F0.50  
M06 
G00 Z0.0500 
M03
G04 P3.000000
G00 Z0.050000
G00 X0.8000 Y0.1000 
G01 Z-0.0670 F0.50  
G01 Z0.050000
(R0.0500  P1.000000)
G00 X0.9000 Y0.1000 
G01 Z-0.067000
G01 Z0.050000
G00 X0.9000 Y0.9000 
G01 Z-0.067000
G01 Z0.050000
G00 X0.8000 Y0.9000 
G01 Z-0.067000
G01 Z0.050000
M05
G00 Z1.0000 
G00 X0.0000 Y0.0000 
M06 T03  ; 0.0320 
G01 Z0.0000 F0.50  
M06 
G00 Z0.0500 
M03
G04 P3.000000
G00 Z0.050000
G00 X0.2500 Y0.1000 
G01 Z-0.0670 F0.50  
G01 Z0.050000
(R0.0500  P1.000000)
G00 X0.2500 Y0.2000 
G01 Z-0.067000
G01 Z0.050000
G00 X0.2500 Y0.3000 
G01 Z-0.067000
G01 Z0.050000
G00 X0.5500 Y0.3000 
G01 Z-0.067000
G01 Z0.050000
G00 X0.5500 Y0.2000 
G01 Z-0.067000
G01 Z0.050000
G00 X0.5500 Y0.1000 
G01 Z-0.067000
G01 Z0.050000
G00 X0.8500 Y0.4500 
G01 Z-0.067000
G01 Z0.050000
G00 X0.8500 Y0.5500 
G01 Z-0.067000
G01 Z0.050000
G00 X0.6500 Y0.7000 
G01 Z-0.067000
G01 Z0.050000
G00 X0.5500 Y0.7000 
G01 Z-0.067000
G01 Z0.050000
G00 X0.4000 Y0.7000 
G01 Z-0.067000
G01 Z0.050000
G00 X0.3000 Y0.7000 
G01 Z-0.067000
G01 Z0.050000
M05
G00 Z1.0000 
G00 X0.0000 Y0.0000 
M06 T04  ; 0.0400 
G01 Z0.0000 F0.50  
M06 
G00 Z0.0500 
M03
G04 P3.000000
G00 Z0.050000
G00 X0.1000 Y0.1000 
G01 Z-0.0670 F0.50  
G01 Z0.050000
(R0.0500  P1.000000)
G00 X0.1000 Y0.2000 
G01 Z-0.067000
G01 Z0.050000
G00 X0.1000 Y0.3000 
G01 Z-0.067000
G01 Z0.050000
G00 X0.1000 Y0.4000 
G01 Z-0.067000
G01 Z0.050000
G00 X0.1000 Y0.5000 
G01 Z-0.067000
G01 Z0.050000
G00 X0.1000 Y0.6000 
G01 Z-0.067000
G01 Z0.050000
G00 X0.1000 Y0.7000 
G01 Z-0.067000
G01 Z0.050000
G00 X0.1000 Y0.8000 
G01 Z-0.067000
G01 Z0.050000
G00 X0.1000 Y0.9000 
G01 Z-0.067000
G01 Z0.050000
G00 X0.4000 Y0.9000 
G01 Z-0.067000
G01 Z0.050000
G00 X0.5000 Y0.9000 
G01 Z-0.067000
G01 Z0.050000
G00 X0.6000 Y0.9000 
G01 Z-0.067000
G01 Z0.050000
T01 
G00 Z0.5000 
M05
M02
